X: 1
T:Rising Sun -- Reel
M:2/4
L:1/8
R:reel
B:Ryan's Mammoth Collection
Z:Contributed by Ray Davies,  ray:davies99.freeserve.co.uk
K:D
vd2dA | FGAc | d2dA | cdef | d2dA | FGAF |  E"4"e ed | cdef :|
 d2ad | fdad | d2ad | cdef | d2ad | fdad |   (gf)ed  | cdef  |
 d2ad | fdad | d2ad | cdef | bgaf | gefd |1    edcB  | Agfe |]"_D.C."
"^last time"eBcA | d2 zH|]
